src/images/review/house.svg

<svg width="14" height="14" viewBox="0 0 14 14" fill="none" xmlns="http://www.w3.org/2000/svg">
<path d="M13.2399 6.77539C13.4646 6.53163 13.4429 6.15801 13.1914 5.94111L7.65187 1.15974C7.40043 0.942837 6.99731 0.947381 6.75117 1.16998L1.19278 6.19603C0.946633 6.41863 0.934552 6.79177 1.16603 7.02912L1.30539 7.17228C1.53659 7.40963 1.91029 7.43793 2.13955 7.2353L2.55495 6.86834V12.2407C2.55495 12.5703 2.82571 12.8372 3.15961 12.8372H5.32629C5.66019 12.8372 5.93095 12.5703 5.93095 12.2407V8.48221H8.69456V12.2407C8.68976 12.5701 8.92867 12.8369 9.26258 12.8369H11.5587C11.8926 12.8369 12.1634 12.5701 12.1634 12.2405V6.94398C12.1634 6.94398 12.2781 7.04315 12.4197 7.16587C12.561 7.28835 12.8577 7.19014 13.0824 6.94614L13.2399 6.77539Z" fill="#D31342"/>
</svg>

<svg width="14" height="14" fill="none" xmlns="http://www.w3.org/2000/svg"><path d="M13.24 6.775a.578.578 0 0 0-.049-.834L7.651 1.16a.698.698 0 0 0-.9.01L1.193 6.196a.574.574 0 0 0-.027.833l.14.143c.23.238.604.266.834.063l.415-.367v5.373a.6.6 0 0 0 .605.596h2.166a.6.6 0 0 0 .605-.596V8.482h2.764v3.759c-.005.33.234.596.568.596h2.296a.6.6 0 0 0 .604-.596V6.944l.257.222c.141.122.438.024.662-.22l.158-.17Z" fill="#D31342"/></svg>
